icons/f-bottom_256.svg

<?xml version="1.0" encoding="UTF-8" standalone="no"?>
<svg
   xmlns:dc="http://purl.org/dc/elements/1.1/"
   xmlns:cc="http://creativecommons.org/ns#"
   xmlns:rdf="http://www.w3.org/1999/02/22-rdf-syntax-ns#"
   xmlns:svg="http://www.w3.org/2000/svg"
   xmlns="http://www.w3.org/2000/svg"
   xmlns:sodipodi="http://sodipodi.sourceforge.net/DTD/sodipodi-0.dtd"
   xmlns:inkscape="http://www.inkscape.org/namespaces/inkscape"
   version="1.1"
   viewBox="0 0 165.332992553711 165.332992553711"
   id="svg28"
   sodipodi:docname="f-bottom_256.svg"
   inkscape:version="0.92.1 r">
  <metadata
     id="metadata32">
    <rdf:RDF>
      <cc:Work
         rdf:about="">
        <dc:format>image/svg+xml</dc:format>
        <dc:type
           rdf:resource="http://purl.org/dc/dcmitype/StillImage" />
      </cc:Work>
    </rdf:RDF>
  </metadata>
  <sodipodi:namedview
     pagecolor="#ffffff"
     bordercolor="#666666"
     borderopacity="1"
     objecttolerance="10"
     gridtolerance="10"
     guidetolerance="10"
     inkscape:pageopacity="0"
     inkscape:pageshadow="2"
     inkscape:window-width="1366"
     inkscape:window-height="708"
     id="namedview30"
     showgrid="false"
     inkscape:zoom="1.4274223"
     inkscape:cx="-47.988601"
     inkscape:cy="79.864242"
     inkscape:window-x="0"
     inkscape:window-y="0"
     inkscape:window-maximized="1"
     inkscape:current-layer="svg28" />
  <defs
     id="defs16">
    <linearGradient
       id="def0"
       x1="82.66716"
       x2="82.66716"
       y1="226.43843"
       y2="-1.2391642"
       gradientUnits="userSpaceOnUse">
      <stop
         offset="0"
         stop-color="#004400"
         id="stop2" />
      <stop
         offset="0.510989"
         stop-color="#018C01"
         id="stop4" />
      <stop
         offset="1"
         stop-color="#91CD91"
         id="stop6" />
    </linearGradient>
    <linearGradient
       id="def1"
       x1="61.321745"
       x2="61.321745"
       y1="113.26187"
       y2="6.8096861"
       gradientTransform="scale(1.3331889,0.75008125)"
       gradientUnits="userSpaceOnUse">
      <stop
         offset="0"
         stop-color="#FFFFFF"
         style="stop-opacity:0.227450980392157"
         id="stop9" />
      <stop
         offset="0.503705"
         stop-color="#FFFFFF"
         style="stop-opacity:0.188235294117647"
         id="stop11" />
      <stop
         offset="1"
         stop-color="#FFFFFF"
         style="stop-opacity:0.152941176470588"
         id="stop13" />
    </linearGradient>
  </defs>
  <path
     inkscape:connector-curvature="0"
     style="fill:#ff0000"
     id="path18"
     d="m 0,82.6667 c 0,45.6563 37.0107,82.6663 82.668,82.6663 v 0 c 45.657,0 82.665,-37.01 82.665,-82.6663 v 0 C 165.333,37.0107 128.325,0 82.668,0 V 0 C 37.0107,0 0,37.0107 0,82.6667 Z" />
  <path
     inkscape:connector-curvature="0"
     style="fill:url(#def1)"
     id="path20"
     d="m 133.283,34.5333 c 0,16.0107 -23.072,28.992 -51.5323,28.992 -28.4587,0 -51.528,-12.9813 -51.528,-28.992 0,-16.0106 23.0693,-28.99198 51.528,-28.99198 28.4603,0 51.5323,12.98138 51.5323,28.99198 z" />
  <path
     style="fill:#ffffff"
     inkscape:connector-curvature="0"
     id="path24"
     d="M 121.633,90.3412 82.6448,129.333 43.6501,90.3412 V 64.6225 l 29.6587,29.6574 v -58.28 H 92.1875 V 94.0745 L 121.683,64.5732 Z" />
</svg>

<?xml version="1.0" ?><svg version="1.1" viewBox="0 0 165.332992553711 165.332992553711" xmlns="http://www.w3.org/2000/svg" xmlns:xlink="http://www.w3.org/1999/xlink"><defs><linearGradient id="def0" x1="0.500004" x2="0.500004" y1="1.36959" y2="-0.00749496"><stop offset="0" stop-color="#004400"/><stop offset="0.510989" stop-color="#018C01"/><stop offset="1" stop-color="#91CD91"/></linearGradient><linearGradient id="def1" x1="0.500006" x2="0.500006" y1="1.36959" y2="-0.00747624"><stop offset="0" stop-color="#FFFFFF" style="stop-opacity:0.227450980392157"/><stop offset="0.503705" stop-color="#FFFFFF" style="stop-opacity:0.188235294117647"/><stop offset="1" stop-color="#FFFFFF" style="stop-opacity:0.152941176470588"/></linearGradient></defs><g><path d="M0,82.6667C0,128.323,37.0107,165.333,82.668,165.333L82.668,165.333C128.325,165.333,165.333,128.323,165.333,82.6667L165.333,82.6667C165.333,37.0107,128.325,0,82.668,0L82.668,0C37.0107,0,0,37.0107,0,82.6667z" fill="url(#def0)"/><path d="M133.283,34.5333C133.283,50.544 110.211,63.5253 81.7507,63.5253 53.292,63.5253 30.2227,50.544 30.2227,34.5333 30.2227,18.5227 53.292,5.54132 81.7507,5.54132 110.211,5.54132 133.283,18.5227 133.283,34.5333z" fill="url(#def1)"/><path d="M81.8959,13.3776C98.8039,13.3776 114.617,16.3589 128.132,21.5349 116.076,11.8003 99.8132,5.8176 81.8959,5.8176 63.9785,5.8176 47.7119,11.8003 35.6585,21.5349 49.1705,16.3589 64.9839,13.3776 81.8959,13.3776z" fill="#FFFFFF"/><path d="M121.633,90.3412L82.6448,129.333 43.6501,90.3412 43.6501,64.6225 73.3088,94.2799 73.3088,35.9999 92.1875,35.9999 92.1875,94.0745 121.683,64.5732 121.633,90.3412z" fill="#FFFFFF"/></g></svg>
